!!!!SEGMENT: Distler_Jahrkreis_22_Nun-bitten-wir-den-heiligen-Geist.krn
!!!COM: Distler, Hugo
!!!CDT: 1908-1942
!!!OPR@@DE: Der Jahrkreis
!!!OPR@EN: The Year Cycle
!!!OTL@@DE: Nun bitten wir den heiligen Geist
!!!OTL@EN: We now implore the Holy Ghost
!!!OPS: 5
!!!ONM: 22
!!!RNB: Instrumental work after 22 is not encoded.
**kern	**text	**kern	**text	**kern	**text
*part3	*part3	*part2	*part2	*part1	*part1
*staff3	*staff3	*staff2	*staff2	*staff1	*staff1
*Ialto	*	*Isoprn	*	*Isoprn	*
*clefG2	*	*clefG2	*	*clefG2	*
*k[f#]	*	*k[f#]	*	*k[f#]	*
*MM120	*	*MM120	*	*MM120	*
*M4/4	*	*M4/4	*	*M4/4	*
*met(c|)	*	*met(c|)	*	*met(c|)	*
=1	=1	=1	=1	=1	=1
2r	.	2g	Nun	1r	.
2d	Nun	4a	bit-	.	.
.	.	4a	ten	.	.
=2	=2	=2	=2	=2	=2
4e	bit-	2g	wir	2b	Nun
(8dL	ten	.	.	.	.
8cJ)	.	.	.	.	.
4B	wir	2g	den	4dd	bit-
4B	den	.	.	4dd	ten
=3	=3	=3	=3	=3	=3
(2A	hei-	(2e	hei-	4cc	wir
.	.	.	.	4cc	den
[2d	.	2d)	.	(2a	hei-
=4	=4	=4	=4	=4	=4
4d])	.	2e	li-	2g)	.
4c	li-	.	.	.	.
2c	gen	(4g	gen	4a	li-
.	.	4f#)	.	4a	gen
=5	=5	=5	=5	=5	=5
1B	Geist	1g,	Geist	1b,	Geist
=6	=6	=6	=6	=6	=6
1r	.	2.g	um	2b	um
.	.	.	.	2dd	den
.	.	4a	den	.	.
!!LO:LB:g=original
=7	=7	=7	=7	=7	=7
1r	.	4e	rech-	2ee	rech-
.	.	4e	ten	.	.
.	.	([2f#	Glau-	2dd	ten
=8	=8	=8	=8	=8	=8
1r	.	4f#]	.	2b	Glau-
.	.	4e)	.	.	.
.	.	2e	ben	4g	ben
.	.	.	.	[4e	al-
=9	=9	=9	=9	=9	=9
1r	.	4d	al-	4e]	.
.	.	4c	ler-	4g	ler-
.	.	2e,	meist,	2g,	meist,
=10	=10	=10	=10	=10	=10
4.e	dass	4.e	dass	4.b	dass
8e	er	8e	er	8b	er
4d	uns	4f#	uns	4b	uns
4c	be-	4g	be-	4a	be-
=11	=11	=11	=11	=11	=11
*M3/2	*	*M3/2	*	*M3/2	*
2d	hue-	2f#	hue-	2b	hue-
4e	te	4e	te	4g	te
4e	an	4e	an	4g	an
4d	un-	4e	un-	4a	un-
4c	serm	4e	serm	4a	serm
=12	=12	=12	=12	=12	=12
2B	En-	2d	En-	2b	En-
1c	de,	2e,	de,	2g,	de,
.	.	4e	wenn	4g	wenn
.	.	4e	wir	4a	wir
!!LO:LB:g=original
=13	=13	=13	=13	=13	=13
*M4/4	*	*M4/4	*	*M4/4	*
*met(c|)	*	*met(c|)	*	*met(c|)	*
1r	.	2d	heim	2b	heim
.	.	4c	fahr'n	2g	fahr'n
.	.	4B	aus	.	.
=14	=14	=14	=14	=14	=14
1r	.	4e	die-	2e	aus
.	.	4e	sem	.	.
.	.	(2d	E-	4a	die-
.	.	.	.	4a	sem
=15	=15	=15	=15	=15	=15
1r	.	2B)	.	(4g	E-
.	.	.	.	4f#)	.
.	.	2c#	len-	2e	len-
=16	=16	=16	=16	=16	=16
1r	.	2.d	de.	2.d	de.
.	.	4r	.	4r	.
=17	=17	=17	=17	=17	=17
4.e	Ky-	4.e	Ky-	2r	.
8d	ri-	8f#	ri-	.	.
2c,	e,	([2g	e-	4.g	Ky-
.	.	.	.	8a	ri-
=18	=18	=18	=18	=18	=18
4B	Ky-	2g]	.	1b	e-
2e	ri-	.	.	.	.
.	.	2f#)	.	.	.
4d#	e-	.	.	.	.
=19	=19	=19	=19	=19	=19
1e	leis!	1g	leis!	1b	leis!
==	==	==	==	==	==
*-	*-	*-	*-	*-	*-
!!!YOR: Bärenreiter-Ausgabe 676
!!!YOY: 1933
!!!EFL: 22/52
!!!URL-pdf: https://imslp.eu/files/imglnks/euimg/7/7d/IMSLP834545-PMLP518834-5-jahrkreis-EA--original-paper-600dpi.pdf#page=42 First edition, Kassel: Bärenreiter, 1933. Plate BA 676.
!!!URL-imslp: https://imslp.org/wiki/Der_Jahrkreis,_Op.5_(Distler,_Hugo)#IMSLP834545
!!!system-decoration: [(s1,s2,s3)]
!!!ENC: Lucas Hofmann
!!!END: 2023/10/26
!!!title: @{OPR@@DE}, Op. @{OPS}, Nr. @{ONM}. @{OTL@@DE}
